assets/images/icons/cq-challenge-icon-1.svg

<svg width="64" height="64" viewBox="0 0 64 64" fill="none" xmlns="http://www.w3.org/2000/svg">
<path d="M10.9373 25.8065C9.59384 24.4645 8.3295 23.1501 7.00839 21.8925C5.30539 20.2718 3.98428 18.4275 3.44757 16.1067C3.27039 15.3376 3.1689 14.5411 3.12074 13.7514C3.05881 12.7518 3.44585 12.3888 4.44873 12.3871C9.56632 12.3854 14.6839 12.3871 19.7998 12.3871C20.0544 12.3871 20.3107 12.3871 20.6513 12.3871C20.6513 12.1222 20.6513 11.8933 20.6513 11.6662C20.6513 8.24774 20.6496 4.82753 20.6513 1.40903C20.6513 0.318279 20.973 0 22.079 0C35.5809 0 49.0844 0 62.5863 0C63.6786 0 63.9986 0.323441 63.9986 1.42624C63.9986 21.8116 63.9986 42.197 63.9986 62.5824C63.9986 63.6766 63.6752 64 62.576 64C45.9554 64 29.3366 64.0034 12.716 63.9983C9.3513 63.9966 6.64026 62.6512 4.62591 59.9501C-2.26865 50.708 -1.37586 38.2056 6.76584 29.9785C8.12479 28.6039 9.50095 27.243 10.9373 25.8065ZM24.1484 25.7875C25.5831 27.2189 26.9386 28.566 28.289 29.9183C31.7638 33.3987 33.9536 37.5501 34.7552 42.412C34.9186 43.3979 34.9977 44.3974 35.1199 45.4211C36.0832 45.4211 37.0069 45.4176 37.929 45.4228C38.8613 45.428 39.2277 45.7824 39.2277 46.7028C39.2312 50.6598 39.2312 54.6168 39.2277 58.5738C39.2277 59.5045 38.8665 59.871 37.9479 59.8727C36.0987 59.8778 34.2495 59.9019 32.4002 59.8555C31.9203 59.8434 31.4473 59.5991 30.9226 59.4477C30.2878 60.1703 29.5327 61.0305 28.7655 61.9045C39.804 61.9045 50.8408 61.9045 61.8965 61.9045C61.8965 41.951 61.8965 22.0318 61.8965 2.11441C48.8195 2.11441 35.7822 2.11441 22.7499 2.11441C22.7499 5.55183 22.7499 8.94108 22.7499 12.3888C23.0131 12.3888 23.2453 12.3888 23.4758 12.3888C25.8841 12.3888 28.2924 12.3854 30.7007 12.3905C31.6571 12.3923 32.0321 12.7656 31.9977 13.729C31.8997 16.5781 30.8727 19.0486 28.8824 21.089C27.3515 22.6563 25.7723 24.1772 24.1484 25.7875ZM17.5308 61.9338C19.251 61.9338 20.9712 61.963 22.6897 61.9269C25.0825 61.8753 27.0676 60.9187 28.5694 59.052C34.4438 51.7471 34.5746 40.9221 28.719 33.5897C26.8371 31.2327 24.5596 29.1905 22.4454 27.0211C22.3113 26.8834 22.0206 26.8473 21.8021 26.8473C18.9638 26.837 16.1272 26.8318 13.2888 26.8542C13.0256 26.8559 12.7005 26.9884 12.513 27.1725C10.9769 28.6761 9.44591 30.1867 7.95105 31.7316C0.757182 39.1708 0.084584 50.5686 6.35127 58.8112C7.90805 60.8602 9.99293 61.9011 12.5646 61.932C14.2212 61.951 15.876 61.9355 17.5308 61.9338ZM29.8509 14.4791C21.637 14.4791 13.4781 14.4791 5.26582 14.4791C5.29335 14.7372 5.29851 14.9695 5.34667 15.1931C5.70103 16.8465 6.42008 18.3191 7.60701 19.532C9.17068 21.1286 10.7773 22.6839 12.3272 24.2925C12.7711 24.7535 13.2131 24.8723 13.829 24.7019C12.9121 22.4086 12.4012 20.0637 12.4046 17.5845C13.1099 17.5845 13.7619 17.5845 14.45 17.5845C14.493 19.6731 14.8628 21.6654 15.6197 23.5802C16.0893 24.769 16.0842 24.7725 17.3279 24.7725C17.7149 24.7725 18.1037 24.7501 18.4873 24.7794C18.8365 24.8052 19.0515 24.7088 19.165 24.3561C19.5246 23.2344 19.9804 22.1385 20.2488 20.9961C20.5102 19.8813 20.5894 18.7217 20.7459 17.5983C21.3961 17.5983 22.0481 17.5983 22.7155 17.5983C22.7035 20.0981 22.1857 22.4465 21.2155 24.8912C21.7522 24.7518 22.239 24.7742 22.4799 24.5402C24.2706 22.8077 26.0544 21.0632 27.7557 19.243C28.9805 17.9338 29.6617 16.3217 29.8509 14.4791ZM35.0717 47.5148C35.0407 47.7299 35.0063 47.8968 34.9926 48.0654C34.8102 50.4809 34.2495 52.8069 33.2879 55.0245C32.8888 55.9449 33.1004 56.8568 33.0522 57.7755C34.4593 57.7755 35.7822 57.7755 37.136 57.7755C37.136 54.3449 37.136 50.9471 37.136 47.5148C36.4462 47.5148 35.789 47.5148 35.0717 47.5148Z" fill="#4FC2DF"/>
<path d="M46.3715 21.1784C47.9782 19.5715 49.5229 18.0283 51.1365 16.4128C50.7718 16.0635 50.371 15.6816 49.9719 15.2979C49.621 14.9607 49.4318 14.5702 49.6296 14.0816C49.836 13.5741 50.2437 13.4124 50.7666 13.4141C53.3882 13.421 56.0115 13.4141 58.6331 13.4192C59.4829 13.421 59.8665 13.7943 59.8682 14.6304C59.8751 17.2747 59.8682 19.919 59.8734 22.5633C59.8734 23.0605 59.7031 23.4459 59.2283 23.6506C58.7449 23.8605 58.3441 23.6902 58.0087 23.3358C57.6268 22.9315 57.2604 22.5134 56.8562 22.0661C56.593 22.3121 56.4192 22.4635 56.2575 22.6253C53.6721 25.2093 51.09 27.7934 48.5046 30.3775C47.6978 31.1827 47.2695 31.1775 46.4507 30.3603C45.4358 29.3453 44.4226 28.3285 43.3784 27.2807C43.1685 27.4786 42.9948 27.6317 42.8314 27.7934C40.9306 29.6928 39.0315 31.5939 37.1306 33.4932C36.3514 34.2708 35.9093 34.2657 35.1232 33.4812C33.9053 32.2666 32.6891 31.0519 31.4763 29.8321C30.7848 29.1371 30.7865 28.6605 31.4815 27.9638C34.7774 24.6622 38.0767 21.3642 41.3761 18.0678C42.0934 17.3521 42.5613 17.3556 43.2907 18.0833C44.3262 19.1173 45.3532 20.1564 46.3715 21.1784ZM47.488 28.4833C50.2472 25.7203 52.9307 23.0227 55.6314 20.3422C55.9255 20.0515 56.2936 19.7298 56.6704 19.661C57.0041 19.599 57.3997 19.8691 57.7575 19.9896C57.7575 18.5272 57.7575 17.0184 57.7575 15.5268C56.2197 15.5268 54.73 15.5268 53.2145 15.5268C53.8733 16.4936 53.8424 16.7827 53.0218 17.6033C51.1984 19.4287 49.3733 21.2524 47.5482 23.076C46.6451 23.9792 46.2597 23.9792 45.3566 23.0743C44.3589 22.0747 43.3629 21.0734 42.4323 20.141C39.4546 23.1242 36.5303 26.0524 33.6748 28.9117C34.4781 29.7169 35.3365 30.5771 36.2826 31.525C36.3875 31.3943 36.5165 31.193 36.6799 31.0278C38.5756 29.1233 40.4764 27.224 42.379 25.3246C43.1307 24.5745 43.5848 24.5745 44.34 25.3281C45.3738 26.3569 46.4008 27.3926 47.488 28.4833Z" fill="#4FC2DF"/>
<path d="M51.6137 46.445C51.6137 42.445 51.6137 38.445 51.6137 34.445C51.6137 33.3508 51.9354 33.0325 53.038 33.0325C54.8872 33.0308 56.7365 33.029 58.5857 33.0342C59.5077 33.0376 59.8689 33.3989 59.8689 34.328C59.8707 42.414 59.8724 50.4983 59.8689 58.5843C59.8689 59.5065 59.5025 59.866 58.5736 59.8695C56.6814 59.8746 54.7892 59.8746 52.897 59.8695C51.975 59.866 51.6154 59.5047 51.6154 58.574C51.612 54.531 51.6137 50.488 51.6137 46.445ZM57.7617 57.7774C57.7617 50.1921 57.7617 42.6617 57.7617 35.1503C56.3752 35.1503 55.0369 35.1503 53.7124 35.1503C53.7124 42.7185 53.7124 50.2333 53.7124 57.7774C55.0713 57.7774 56.3941 57.7774 57.7617 57.7774Z" fill="#4FC2DF"/>
<path d="M41.2937 50.5807C41.2937 47.9364 41.292 45.2904 41.2955 42.6461C41.2972 41.6328 41.6361 41.2939 42.6492 41.2921C44.5191 41.2887 46.3907 41.2887 48.2605 41.2921C49.186 41.2939 49.549 41.6551 49.549 42.5807C49.5524 47.9141 49.5524 53.2474 49.549 58.579C49.549 59.5046 49.1843 59.8659 48.2588 59.8693C46.3666 59.8745 44.4744 59.8745 42.5822 59.8693C41.6567 59.8676 41.2955 59.5063 41.2937 58.579C41.292 55.9123 41.2937 53.2457 41.2937 50.5807ZM43.3907 43.3842C43.3907 48.222 43.3907 52.9842 43.3907 57.767C44.7634 57.767 46.1017 57.767 47.4417 57.767C47.4417 52.948 47.4417 48.1704 47.4417 43.3842C46.0742 43.3842 44.7496 43.3842 43.3907 43.3842Z" fill="#4FC2DF"/>
<path d="M24.8086 6.14723C24.8086 5.46938 24.8086 4.83282 24.8086 4.16357C28.9268 4.16357 33.0157 4.16357 37.1355 4.16357C37.1355 4.82938 37.1355 5.46594 37.1355 6.14723C33.0432 6.14723 28.9526 6.14723 24.8086 6.14723Z" fill="#4FC2DF"/>
<path d="M24.8262 8.28711C28.9495 8.28711 33.0229 8.28711 37.1325 8.28711C37.1325 8.9512 37.1325 9.58776 37.1325 10.2742C33.0522 10.2742 28.9615 10.2742 24.8262 10.2742C24.8262 9.63765 24.8262 8.9856 24.8262 8.28711Z" fill="#4FC2DF"/>
<path d="M41.2403 6.17962C40.5677 6.17962 39.9467 6.17962 39.2793 6.17962C39.2793 5.51725 39.2793 4.86693 39.2793 4.17188C39.9192 4.17188 40.5694 4.17188 41.2403 4.17188C41.2403 4.84456 41.2403 5.51037 41.2403 6.17962Z" fill="#4FC2DF"/>
<path d="M41.2543 10.3105C40.5714 10.3105 39.9521 10.3105 39.2812 10.3105C39.2812 9.65155 39.2812 8.99951 39.2812 8.30273C39.9143 8.30273 40.5645 8.30273 41.2543 8.30273C41.2543 8.95306 41.2543 9.60338 41.2543 10.3105Z" fill="#4FC2DF"/>
<path d="M17.6038 34.0679C24.3624 34.0507 29.9066 39.6111 29.9393 46.4361C29.972 53.206 24.4037 58.818 17.6347 58.8387C10.7866 58.8593 5.1736 53.3161 5.17188 46.5324C5.17016 39.6008 10.6714 34.0851 17.6038 34.0679ZM27.8751 46.4774C27.8699 40.781 23.258 36.1307 17.6141 36.1307C11.8514 36.129 7.23611 40.7363 7.23611 46.4894C7.23439 52.1686 11.9013 56.7896 17.6244 56.7741C23.2443 56.7587 27.8785 52.1032 27.8751 46.4774Z" fill="#4FC2DF"/>
<path d="M16.5368 40.2149C16.5368 39.5319 16.5368 38.8936 16.5368 38.2261C17.2198 38.2261 17.8562 38.2261 18.5615 38.2261C18.5615 38.8781 18.5615 39.5319 18.5615 40.2235C19.6212 40.3181 20.4744 40.7052 21.0868 41.531C21.7078 42.3671 21.737 43.3203 21.6579 44.3422C20.9956 44.3422 20.3436 44.3422 19.6418 44.3422C19.5472 43.5783 19.874 42.5822 18.6372 42.3207C18.6372 43.3478 18.6372 44.3388 18.6372 45.3917C19.6366 45.4725 20.4967 45.8837 21.1177 46.7302C21.7817 47.6351 21.7164 48.6794 21.6734 49.7082C21.6063 51.3013 20.4847 52.3835 18.589 52.6828C18.589 53.3297 18.589 53.9869 18.589 54.6751C17.8924 54.6751 17.2542 54.6751 16.5506 54.6751C16.5506 54.0231 16.5506 53.3693 16.5506 52.676C15.491 52.5831 14.6395 52.1925 14.0253 51.3684C13.4026 50.534 13.3717 49.5809 13.4577 48.559C14.1165 48.559 14.7685 48.559 15.4703 48.559C15.5649 49.3246 15.2398 50.319 16.4766 50.5805C16.4766 49.5534 16.4766 48.5607 16.4766 47.5112C15.4772 47.4269 14.6171 47.0157 13.9961 46.1693C13.3304 45.2644 13.3992 44.2201 13.4405 43.1912C13.5007 41.6016 14.6309 40.5108 16.5368 40.2149ZM16.4956 45.402C16.4956 44.3663 16.4956 43.3684 16.4956 42.3654C15.7731 42.4841 15.5202 42.768 15.491 43.4613C15.4342 44.8773 15.5718 45.1594 16.4956 45.402ZM18.6045 50.5547C19.5455 50.3362 19.7381 49.9233 19.6177 48.5125C19.5627 47.8828 19.2462 47.5818 18.6045 47.5663C18.6045 48.5469 18.6045 49.5276 18.6045 50.5547Z" fill="#4FC2DF"/>
</svg>

<svg xmlns="http://www.w3.org/2000/svg" width="64" height="64" fill="none"><path fill="#4FC2DF" d="M10.937 25.806c-1.343-1.341-2.607-2.656-3.929-3.914-1.703-1.62-3.024-3.465-3.56-5.785a14.453 14.453 0 0 1-.327-2.356c-.062-1 .325-1.362 1.328-1.364 5.117-.002 10.235 0 15.35 0h.852V1.41C20.651.319 20.973 0 22.08 0h40.507C63.68 0 64 .323 64 1.426v61.156c0 1.095-.324 1.418-1.423 1.418-16.62 0-33.24.003-49.86-.002-3.365-.001-6.076-1.347-8.09-4.048-6.895-9.242-6.002-21.744 2.14-29.972 1.359-1.374 2.735-2.735 4.171-4.172Zm13.211-.018c1.435 1.43 2.79 2.778 4.141 4.13 3.475 3.48 5.665 7.632 6.466 12.494.164.986.243 1.985.365 3.01.963 0 1.887-.004 2.809 0 .932.006 1.299.36 1.299 1.28.003 3.958.003 7.915 0 11.872 0 .93-.361 1.297-1.28 1.299-1.85.005-3.699.029-5.548-.017-.48-.013-.953-.257-1.477-.408l-2.157 2.456h33.13V2.114H22.75V12.39h.726c2.408 0 4.816-.004 7.225.002.956.001 1.331.375 1.297 1.338-.098 2.85-1.125 5.32-3.116 7.36-1.53 1.567-3.11 3.088-4.734 4.699Zm-6.617 36.146c1.72 0 3.44.029 5.159-.007 2.392-.052 4.378-1.008 5.88-2.875 5.874-7.305 6.005-18.13.149-25.462-1.882-2.357-4.16-4.4-6.274-6.569-.134-.138-.424-.174-.643-.174-2.838-.01-5.675-.015-8.513.007a1.224 1.224 0 0 0-.776.319 237.58 237.58 0 0 0-4.562 4.559C.757 39.17.085 50.569 6.351 58.812c1.557 2.048 3.642 3.09 6.214 3.12 1.656.019 3.311.003 4.966.002Zm12.32-47.455H5.266c.027.258.033.49.08.714.355 1.653 1.074 3.126 2.261 4.339 1.564 1.597 3.17 3.152 4.72 4.76.444.461.886.58 1.502.41-.917-2.293-1.428-4.638-1.424-7.118h2.045c.043 2.09.413 4.081 1.17 5.996.47 1.189.464 1.193 1.708 1.193.387 0 .776-.023 1.16.006.349.026.564-.07.677-.423.36-1.122.815-2.218 1.084-3.36.261-1.115.34-2.274.497-3.398h1.97c-.013 2.5-.53 4.849-1.5 7.293.536-.14 1.023-.117 1.264-.35 1.79-1.733 3.574-3.478 5.276-5.298 1.224-1.31 1.906-2.921 2.095-4.764Zm5.22 33.036c-.03.215-.065.382-.078.55a21.436 21.436 0 0 1-1.705 6.96c-.4.92-.188 1.832-.236 2.75h4.084v-10.26h-2.064Z"/><path fill="#4FC2DF" d="M46.371 21.178c1.607-1.607 3.152-3.15 4.765-4.765-.364-.35-.765-.731-1.164-1.115-.351-.337-.54-.728-.342-1.216.206-.508.614-.67 1.137-.668 2.621.007 5.244 0 7.866.005.85.002 1.233.375 1.235 1.211.007 2.645 0 5.289.005 7.933 0 .498-.17.883-.645 1.088-.483.21-.884.04-1.22-.315-.381-.404-.748-.823-1.152-1.27-.263.246-.437.398-.599.56-2.585 2.583-5.167 5.167-7.752 7.752-.807.805-1.236.8-2.054-.018-1.015-1.015-2.028-2.032-3.073-3.08-.21.199-.383.352-.547.513l-5.7 5.7c-.78.778-1.222.773-2.008-.012-1.218-1.214-2.434-2.43-3.647-3.649-.691-.695-.69-1.172.006-1.868 3.295-3.302 6.595-6.6 9.894-9.896.717-.716 1.185-.712 1.915.015 1.035 1.034 2.062 2.073 3.08 3.095Zm1.117 7.305c2.76-2.763 5.443-5.46 8.143-8.14.294-.291.663-.613 1.04-.682.333-.062.729.208 1.087.329v-4.463h-4.544c.66.967.628 1.256-.192 2.076a8069.18 8069.18 0 0 1-5.474 5.473c-.903.903-1.288.903-2.191-.002l-2.925-2.933c-2.977 2.983-5.902 5.911-8.757 8.77l2.608 2.614c.105-.13.233-.332.397-.497a2553.55 2553.55 0 0 1 5.699-5.703c.752-.75 1.206-.75 1.961.003 1.034 1.029 2.06 2.065 3.148 3.155ZM51.614 46.445v-12c0-1.094.321-1.413 1.424-1.413 1.85-.001 3.699-.003 5.548.002.922.004 1.283.365 1.283 1.294.002 8.086.003 16.17 0 24.256 0 .922-.367 1.282-1.295 1.285-1.893.006-3.785.006-5.677 0-.922-.003-1.282-.364-1.282-1.295-.003-4.043-.001-8.086-.001-12.129Zm6.148 11.332V35.15h-4.05v22.627h4.05ZM41.294 50.58c0-2.644-.002-5.29.002-7.934.001-1.013.34-1.352 1.353-1.354 1.87-.003 3.742-.003 5.611 0 .926.002 1.289.363 1.289 1.289.003 5.333.003 10.666 0 15.998 0 .926-.365 1.287-1.29 1.29-1.892.005-3.785.005-5.677 0-.925-.001-1.287-.363-1.288-1.29-.002-2.667 0-5.333 0-7.998Zm2.097-7.196v14.383h4.05V43.384h-4.05ZM24.809 6.147V4.164h12.326v1.983H24.81ZM24.826 8.287h12.306v1.987H24.827V8.287ZM41.24 6.18h-1.96V4.172h1.96V6.18ZM41.254 10.31h-1.973V8.303h1.973v2.007ZM17.604 34.068c6.758-.017 12.303 5.543 12.335 12.368.033 6.77-5.535 12.382-12.304 12.403-6.848.02-12.461-5.523-12.463-12.307-.002-6.931 5.5-12.447 12.432-12.464Zm10.271 12.41c-.005-5.697-4.617-10.347-10.26-10.347A10.327 10.327 0 0 0 7.235 46.489c-.002 5.68 4.665 10.3 10.388 10.285 5.62-.015 10.255-4.67 10.251-10.297Z"/><path fill="#4FC2DF" d="M16.537 40.215v-1.989h2.024v1.998c1.06.094 1.913.481 2.526 1.307.62.836.65 1.79.57 2.811h-2.015c-.095-.764.232-1.76-1.005-2.021v3.07c1 .081 1.86.493 2.48 1.34.665.904.6 1.948.556 2.977-.067 1.593-1.188 2.675-3.084 2.975v1.992h-2.038v-1.999c-1.06-.093-1.911-.483-2.526-1.308-.622-.834-.653-1.787-.567-2.809h2.012c.095.766-.23 1.76 1.007 2.022v-3.07c-1-.084-1.86-.495-2.48-1.342-.667-.905-.598-1.949-.556-2.978.06-1.59 1.19-2.68 3.096-2.976Zm-.041 5.187v-3.037c-.723.12-.976.403-1.005 1.096-.057 1.416.08 1.698 1.005 1.941Zm2.109 5.153c.94-.219 1.133-.632 1.013-2.042-.055-.63-.372-.931-1.013-.947v2.989Z"/></svg>
